packages/web-icons/svgs/menu_2.svg

<svg viewBox="0 0 48 40" xmlns="http://www.w3.org/2000/svg" class="ridi_icon"><path d="M46.5 7.1h-45C.5 7.1 0 6.5 0 5.6V2.3C0 1.4.6.8 1.5.8h45c.9 0 1.5.6 1.5 1.5v3.3c0 .9-.6 1.5-1.5 1.5zm0 16h-45c-.9 0-1.5-.6-1.5-1.5v-3.3c0-.9.6-1.5 1.5-1.5h45c.9 0 1.5.6 1.5 1.5v3.3c0 1-.6 1.5-1.5 1.5zm0 16.1h-45c-.9 0-1.5-.6-1.5-1.5v-3.3c0-.9.6-1.5 1.5-1.5h45c.9 0 1.5.6 1.5 1.5v3.3c0 .8-.6 1.5-1.5 1.5z"/></svg>

<?xml version="1.0" encoding="UTF-8"?>
<svg width="48px" height="40px" viewBox="0 0 48 40" version="1.1" xmlns="http://www.w3.org/2000/svg">
  <!-- Generator: Sketch 41.2 (35397) - http://www.bohemiancoding.com/sketch -->
  <title>menu_2</title>
  <desc>Created with Sketch.</desc>
  <defs></defs>
  <g id="Page-1" stroke="none" stroke-width="1" fill="none" fill-rule="evenodd">
    <g id="menu_2" fill="#000000">
      <g id="Layer_1">
        <path d="M46.5,7.1 L1.5,7.1 C0.5,7.1 0,6.5 0,5.6 L0,2.3 C0,1.4 0.6,0.8 1.5,0.8 L46.5,0.8 C47.4,0.8 48,1.4 48,2.3 L48,5.6 C48,6.5 47.4,7.1 46.5,7.1 Z" id="Shape"></path>
        <path d="M46.5,23.1 L1.5,23.1 C0.6,23.1 0,22.5 0,21.6 L0,18.3 C0,17.4 0.6,16.8 1.5,16.8 L46.5,16.8 C47.4,16.8 48,17.4 48,18.3 L48,21.6 C48,22.6 47.4,23.1 46.5,23.1 Z" id="Shape"></path>
        <path d="M46.5,39.2 L1.5,39.2 C0.6,39.2 0,38.6 0,37.7 L0,34.4 C0,33.5 0.6,32.9 1.5,32.9 L46.5,32.9 C47.4,32.9 48,33.5 48,34.4 L48,37.7 C48,38.5 47.4,39.2 46.5,39.2 Z" id="Shape"></path>
      </g>
    </g>
  </g>
</svg>
